X: 1693
T: The Woods of Kilkenny
M:4/4
L:1/8
B:O'Neill's 1693
N:"collected by Fielding"
K:D
A2 \
| dAFA dfaf | gece dcBA | BGAFE2e-f | gece dcBA |
| dAFA dfaf | gece dcBA | dfaf bgec | d2d2d2 :|
|: A-G \
| F>A(3AAAd>A(3AAA | fdcd BAGF | E>e(3eee g>e(3eee | cege dcBA |
| gbbg faaf | gece dcBA | dfaf bgec | d2d2d2 :|


